X:115
T:Reel 115
M:4/4
K:Dmaj
L:1/8
AG|F>D (3DDD FDAD|F>D (3DDD d2cd|eEEE GFED|EAAB AGFG|F>D (3DDD FDAG|F>D (3DDD A2GF|GBAF FDED|CDEc d2|FA|d2dc dfed|cAAB cdec|BGGF GEEd|cABc dcBc|d2dc dfed|cAAB cded|fdec dcBd|AFGE DGAG|
